X:2788
T:I'll Buy Boots for Maggie
O:england
M:2/4
L:1/8
R:polka
K:Am
EA AB|cB AB|EA AB|cB A2|EA AB|cB AB|ef/e/ dB|BA AG:|
|:A>B cd|eg a2|ef/e/ dB|BA AG|A>B cd|eg a2|ef/e/ dB|BA AG:|
"Another version:"
EA AB|cB AB|FA AB|cB A2|^FA AB|cB AB|ef/e/ dB|BA AG:|
|:A>B cd|eg a2|ef/e/ dB|BA AG|A>B cd|eg a2|ef/e/ dB|BA AG:|


